_includes/icons/color-undo.svg

<svg fill="#666" height="50" viewBox="0 0 48 48" width="50" xmlns="http://www.w3.org/2000/svg"><g fill="#00bcd4"><path d="m5 18 14-11.699219v23.398438z"/><path d="m28 14h-12v8h12c2.800781 0 5 2.199219 5 5s-2.199219 5-5 5h-3v8h3c7.199219 0 13-5.800781 13-13s-5.800781-13-13-13z"/></g></svg>

<svg xmlns="http://www.w3.org/2000/svg" viewBox="0 0 48 48" width="50" height="50" fill="#666"><g fill="#00bcd4"><path d="M 5 18 L 19 6.300781 L 19 29.699219 Z"/><path d="M 28 14 L 16 14 L 16 22 L 28 22 C 30.800781 22 33 24.199219 33 27 C 33 29.800781 30.800781 32 28 32 L 25 32 L 25 40 L 28 40 C 35.199219 40 41 34.199219 41 27 C 41 19.800781 35.199219 14 28 14 Z"/></g></svg>
